X: 20863
P: A Donnybrook Row.
M: 6/8
L: 1/8
K: G
(B>cd) gdc | B2G G2B | (cde) (Aag) | f2d d2f |\
gdB ecA | (afd) (bag) | (fga) (dgf) | g2G "^Fin."G2 H:|
(ceg) (gec) | (Bdg) (gdB) | cBc Aag | f2d d2c |\
(Bdg) (cea) | (dfa) bag | (dcB) (Aa)g | g2G "^D.C."G2 |]
[K:=f] f |\
edc g2f | edc BAG | c2e d2f | e2g d2f |\
edc g2f | edc BAG | ced efg | agf e"^D.C. al"dc !segno!|]



